X:62
T:Reel 62
M:4/4
K:Gmaj
L:1/8
d|e3g dBAc|egdg ecdf|eggd egdB|c|dcBA GBdc|Bddf gedB|cedB ABAg|fdef gfgb|agfa g2|Bc|dgga bgab|gaag fddf|egga bgab|gabg fdef|dgga bgd'b|agab c'afa| (3bc'd' gf afgf|egdB G2|
